app/assets/images/payment_icons/jenius.svg

<svg width="38" height="24" viewBox="0 0 38 24" fill="none" xmlns="http://www.w3.org/2000/svg" aria-labelledby="pi-jenius">
<title id="pi-jenius">Jenius</title>
<g clip-path="url(#clip0_1_1272)">
<path opacity="0.07" d="M35 0H3C1.3 0 0 1.3 0 3V21C0 22.7 1.4 24 3 24H35C36.7 24 38 22.7 38 21V3C38 1.3 36.6 0 35 0Z" fill="black"/>
<path d="M35 1C36.1 1 37 1.9 37 3V21C37 22.1 36.1 23 35 23H3C1.9 23 1 22.1 1 21V3C1 1.9 1.9 1 3 1H35Z" fill="white"/>
<mask id="mask0_1_1272" style="mask-type:luminance" maskUnits="userSpaceOnUse" x="3" y="8" width="32" height="8">
<path d="M35 8.59094H3V15.8637H35V8.59094Z" fill="white"/>
</mask>
<g mask="url(#mask0_1_1272)">
<path d="M8.40424 15.0533C9.27788 14.5488 9.82424 13.6854 9.82424 12.7469C9.82424 10.6545 7.71152 9.90629 7.71152 9.90629C7.32303 9.68508 6.84364 9.56659 6.31333 9.56659C6.27424 9.56659 6.20364 9.56781 6.16394 9.56781C6.70333 9.17689 7.40394 8.93568 8.11242 8.93568C9.76364 8.93568 11.013 10.4502 11.013 11.8678C11.013 13.5169 9.80515 14.7969 8.40424 15.0533ZM7.34212 15.0472C6.26848 14.8439 5.38636 14.0584 5.00758 13.1278C5.38394 13.4848 5.91939 13.7287 6.60333 13.7287C7.69485 13.7287 8.73273 12.9193 8.73273 11.7218C8.73273 11.1321 8.51697 10.7469 8.51697 10.7469C8.97333 11.1939 9.26152 11.8209 9.26152 12.5848C9.26152 13.6587 8.4297 14.6606 7.34212 15.0472ZM6.38212 15.2175C5.1003 15.2175 3.74667 14.0194 3.74667 12.5284C3.74667 11.7996 3.98273 11.0727 4.58212 10.5839C4.47545 10.7984 4.40242 11.0551 4.37303 11.3636C4.35879 11.4751 4.35061 11.5902 4.35061 11.7112C4.35061 13.3215 5.26455 14.6566 6.69545 15.1972C6.59212 15.2106 6.48727 15.2175 6.38212 15.2175ZM6.50576 10.0036C7.43758 10.0036 8.15818 10.889 8.15818 11.6784C8.15818 12.7469 7.48333 13.4618 6.54 13.4618C5.69424 13.4618 4.93848 12.7054 4.93848 11.629C4.93848 10.7408 5.62273 10.0036 6.50576 10.0036ZM7.83424 8.59204C6.96394 8.59204 5.72727 8.95417 4.99818 9.83599C3.84364 10.3239 3 11.4112 3 12.6018C3 14.4475 4.62727 15.5503 6.58818 15.5503C6.91091 15.5503 7.21939 15.4812 7.50606 15.4094C7.71697 15.4421 7.93636 15.4594 8.16333 15.4594C10.0145 15.4594 11.6445 14.0103 11.6445 12.1157C11.6445 10.163 10.0364 8.59204 7.83424 8.59204Z" fill="#00A4E4"/>
<path d="M14.7009 14.0039C14.7009 14.5979 14.3103 14.9333 13.4779 14.9585V15.8627C14.4228 15.8627 15.6203 15.3676 15.6203 14.0039V9.57239H14.7009V14.0039Z" fill="#00A4E4"/>
<path d="M17.3397 11.3961C17.4009 10.8455 17.6436 10.3591 18.2503 10.3591C18.8579 10.3591 19.1003 10.8455 19.1621 11.3961H17.3397ZM20.1239 11.4807C20.1239 10.7779 19.7245 9.48792 18.2503 9.48792C16.8539 9.48792 16.3776 10.6191 16.3776 11.7901C16.3776 12.9625 16.8636 14.0931 18.4673 14.0931C18.9018 14.0931 19.4554 13.9931 20.0891 13.557L19.6212 12.8543C19.2224 13.0976 18.8397 13.2228 18.4673 13.2228C17.756 13.2228 17.4264 12.754 17.3485 12.2682H19.2824C19.8545 12.2682 20.1239 12.051 20.1239 11.4807Z" fill="#00A4E4"/>
<path d="M22.6227 9.48792C21.4773 9.48792 20.89 10.4013 20.89 10.4013V14.0434H21.8082V10.694C21.8082 10.694 22.0943 10.3591 22.6227 10.3591C23.2043 10.3591 23.5246 10.8194 23.5246 11.2297V14.0434H24.4449V11.2297C24.4449 10.384 23.8282 9.48792 22.6227 9.48792Z" fill="#00A4E4"/>
<path d="M25.464 14.0434H26.3828V9.53821H25.464V14.0434Z" fill="#00A4E4"/>
<path d="M33.3351 11.3134H33.3433C33.0297 11.2294 32.6245 11.0807 32.6245 10.7703C32.6245 10.544 32.8666 10.3591 33.3263 10.3591C33.786 10.3591 34.306 10.5603 34.5054 10.6519L34.8012 9.85579C34.4963 9.70518 33.8803 9.48792 33.3263 9.48792C32.5291 9.48792 31.6957 9.88095 31.6957 10.7703C31.6957 11.5894 32.4418 12.0007 33.1788 12.1761C33.5788 12.2595 34.0803 12.4195 34.0803 12.7376C34.0803 13.0728 33.6745 13.2237 33.2742 13.2237C32.8845 13.2237 32.347 12.9798 31.9394 12.7701L31.5836 13.5998C31.9733 13.7931 32.5466 14.0761 33.2742 14.0931C34.1145 14.0931 35 13.7086 35 12.7376C35 11.7982 34.0288 11.4804 33.3351 11.3134Z" fill="#00A4E4"/>
<path d="M30.064 12.3516C30.064 12.7604 29.7443 13.2188 29.1667 13.2225C28.5916 13.2188 28.2707 12.7604 28.2707 12.3516V9.53821H27.3522V12.3516C27.3522 13.1955 27.9649 14.0873 29.1628 14.0931H29.1734C30.3713 14.0873 30.9828 13.1955 30.9828 12.3516V9.53821H30.064V12.3516Z" fill="#00A4E4"/>
</g>
</g>
<defs>
<clipPath id="clip0_1_1272">
<rect width="38" height="24" fill="white"/>
</clipPath>
</defs>
</svg>

<svg xmlns="http://www.w3.org/2000/svg" width="38" height="24" fill="none" aria-labelledby="pi-jenius" viewBox="0 0 38 24"><title id="pi-jenius">Jenius</title><g clip-path="url(#clip0_1_1272)"><path fill="#000" d="M35 0H3C1.3 0 0 1.3 0 3v18c0 1.7 1.4 3 3 3h32c1.7 0 3-1.3 3-3V3c0-1.7-1.4-3-3-3Z" opacity=".07"/><path fill="#fff" d="M35 1c1.1 0 2 .9 2 2v18c0 1.1-.9 2-2 2H3c-1.1 0-2-.9-2-2V3c0-1.1.9-2 2-2h32Z"/><mask id="mask0_1_1272" width="32" height="8" x="3" y="8" maskUnits="userSpaceOnUse" style="mask-type:luminance"><path fill="#fff" d="M35 8.59H3v7.274h32V8.59Z"/></mask><g fill="#00A4E4" mask="url(#mask0_1_1272)"><path d="M8.404 15.053c.874-.504 1.42-1.368 1.42-2.306 0-2.092-2.112-2.84-2.112-2.84-.389-.222-.868-.34-1.399-.34h-.15c.54-.39 1.24-.631 1.95-.631 1.65 0 2.9 1.514 2.9 2.932 0 1.649-1.208 2.929-2.609 3.185Zm-1.062-.006c-1.074-.203-1.956-.989-2.334-1.92.376.358.911.602 1.595.602 1.092 0 2.13-.81 2.13-2.007 0-.59-.216-.975-.216-.975.456.447.745 1.074.745 1.838 0 1.074-.832 2.076-1.92 2.462Zm-.96.17c-1.282 0-2.635-1.198-2.635-2.689 0-.728.236-1.455.835-1.944-.107.214-.18.471-.209.78a2.73 2.73 0 0 0-.022.347c0 1.61.914 2.946 2.344 3.486-.103.014-.208.02-.313.02Zm.124-5.213c.932 0 1.652.885 1.652 1.674 0 1.069-.675 1.784-1.618 1.784-.846 0-1.602-.757-1.602-1.833 0-.888.685-1.625 1.568-1.625Zm1.328-1.412c-.87 0-2.107.362-2.836 1.244C3.844 10.324 3 11.411 3 12.602c0 1.845 1.627 2.948 3.588 2.948.323 0 .631-.069.918-.14.211.032.43.05.657.05 1.851 0 3.482-1.45 3.482-3.344 0-1.953-1.609-3.524-3.81-3.524ZM14.7 14.004c0 .594-.39.93-1.222.955v.904c.945 0 2.142-.495 2.142-1.86v-4.43h-.92v4.43ZM17.34 11.396c.06-.55.304-1.037.91-1.037.608 0 .85.486.912 1.037H17.34Zm2.784.085c0-.703-.4-1.993-1.874-1.993-1.396 0-1.872 1.131-1.872 2.302 0 1.173.486 2.303 2.09 2.303.434 0 .987-.1 1.621-.536l-.468-.703c-.399.244-.781.369-1.154.369-.711 0-1.04-.469-1.118-.955h1.933c.573 0 .842-.217.842-.787ZM22.623 9.488c-1.146 0-1.733.913-1.733.913v3.642h.918v-3.349s.286-.335.815-.335c.581 0 .902.46.902.87v2.814h.92V11.23c0-.846-.617-1.742-1.822-1.742ZM25.464 14.043h.919V9.538h-.919v4.505ZM33.335 11.313h.008c-.313-.084-.719-.232-.719-.543 0-.226.243-.41.702-.41.46 0 .98.2 1.18.292l.295-.796c-.305-.15-.92-.368-1.475-.368-.797 0-1.63.393-1.63 1.282 0 .82.746 1.23 1.483 1.406.4.083.901.243.901.562 0 .335-.405.486-.806.486-.39 0-.927-.244-1.335-.454l-.355.83c.39.193.963.476 1.69.493.84 0 1.726-.384 1.726-1.355 0-.94-.971-1.258-1.665-1.425ZM30.064 12.352c0 .408-.32.867-.897.87a.88.88 0 0 1-.896-.87V9.538h-.919v2.814c0 .843.613 1.735 1.81 1.741h.011c1.198-.006 1.81-.898 1.81-1.741V9.538h-.919v2.814Z"/></g></g><defs><clipPath id="clip0_1_1272"><path fill="#fff" d="M0 0h38v24H0z"/></clipPath></defs></svg>
